svg/color/cibo.svg

<svg width="200" height="202" viewBox="0 0 200 202" fill="none" xmlns="http://www.w3.org/2000/svg">
<path d="M199.991 100C199.936 92.6195 195.079 88.3785 188.74 85.2933C174.296 78.2584 159.861 71.2052 145.708 63.6242C142.079 61.6766 138.568 58.2638 136.621 54.6507C128.862 40.244 121.613 25.5643 114.455 10.8482C111.326 4.41392 107.06 -0.10011 99.5743 0.00910087C99.1468 0.00910087 98.7375 0.0364035 98.3373 0.0728069C98.2281 0.0546052 98.1281 0.0273026 98.0098 0C97.9643 0.0455043 97.9189 0.0819078 97.8734 0.127412C91.8247 0.864583 88.1683 4.97817 85.4396 10.5752C78.2721 25.2822 71.041 39.971 63.3097 54.3868C61.3632 58.018 57.9432 61.531 54.3322 63.4786C39.679 71.3872 24.7166 78.7225 9.79965 86.1397C4.05116 89.0065 0.121812 92.8653 0.00356829 99.7637C0.00356829 100.191 0.00356829 100.601 0.0217597 101.001C0.00356829 101.402 -0.00552742 101.811 0.00356829 102.239C0.121812 109.138 4.05116 112.996 9.79965 115.854C24.7166 123.271 39.679 130.607 54.3322 138.515C57.9432 140.463 61.3632 143.976 63.3097 147.607C71.041 162.023 78.2721 176.712 85.4396 191.419C88.1683 197.016 91.8338 201.138 97.8734 201.866C97.9189 201.912 97.9643 201.948 98.0098 201.994C98.119 201.976 98.219 201.948 98.3373 201.921C98.7375 201.957 99.1559 201.985 99.5743 201.985C107.069 202.103 111.335 197.589 114.464 191.155C121.622 176.439 128.872 161.75 136.63 147.352C138.577 143.739 142.088 140.326 145.717 138.379C159.87 130.798 174.305 123.745 188.749 116.71C195.088 113.624 199.945 109.383 200 102.003C200 101.657 199.982 101.329 199.964 101.001C199.982 100.674 200 100.337 200 100H199.991Z" fill="#FFC74E"/>
</svg>

<svg xmlns="http://www.w3.org/2000/svg" width="200" height="202" fill="none" viewBox="0 0 200 202"><path fill="#FFC74E" d="M199.991 100c-.055-7.38-4.912-11.621-11.251-14.707-14.444-7.035-28.879-14.088-43.032-21.669-3.629-1.947-7.14-5.36-9.087-8.973-7.759-14.407-15.008-29.087-22.166-43.803C111.326 4.414 107.06-.1 99.575.01c-.428 0-.838.027-1.238.064-.109-.018-.209-.046-.327-.073-.046.046-.091.082-.137.127-6.048.738-9.705 4.851-12.433 10.448-7.168 14.707-14.399 29.396-22.13 43.812-1.947 3.631-5.367 7.144-8.978 9.092C39.68 71.387 24.717 78.722 9.8 86.139 4.05 89.008.122 92.866.004 99.765c0 .427 0 .837.018 1.237-.018.401-.028.81-.018 1.238.118 6.899 4.047 10.757 9.796 13.615 14.917 7.417 29.879 14.753 44.532 22.661 3.611 1.948 7.031 5.461 8.978 9.092 7.731 14.416 14.962 29.105 22.13 43.812 2.728 5.597 6.394 9.719 12.433 10.447.046.046.091.082.137.128.109-.018.209-.046.327-.073.4.036.819.064 1.237.064 7.495.118 11.761-4.396 14.89-10.83 7.158-14.716 14.408-29.405 22.166-43.803 1.947-3.613 5.458-7.026 9.087-8.973 14.153-7.581 28.588-14.634 43.032-21.669 6.339-3.086 11.196-7.327 11.251-14.707 0-.346-.018-.674-.036-1.002.018-.327.036-.664.036-1.001z"/></svg>
